!!!!SEGMENT: pl-kk--kk-i-338--001_gorczycki-grzegorz-gerwazy--deus-tuorum-militum.krn
!!!cenid: 17xx:1938
!!!COM: Gorczycki, Grzegorz Gerwazy
!!!COM-rismid: pe30009207
!!!CDT: ~1666-1734/04/30
!!!CNT: Polish
!!!OTL: Deus tuorum militum
!!!PDT:
!!!AGN: Sacred
!!!SMS-siglum: PL-Kk
!!!SMS-shelfmark: Kk.I.338
!!!SMS-shelfwork: 001 W
!!!SMS-variant:
!!!SMS-altvar:
!!!NIFC-rismid: 1001143666
!!!URL-scan: http://repozytorium.nifc.pl/skany/pl-kk-nut--i-338
!!!ONB-nifc: UWAGA: utwory w zbiorze: 1. Deus tuorum militum, 2. Rex gloriose martyrum, 3. Invicte Martyr unicum, 4. Tristes erant apostoli
!!!key:
**kern	**text	**text	**dynam	**kern	**text	**dynam	**kern	**text	**dynam	**kern	**text	**dynam	**kern	**text	**dynam
*part5	*part5	*part5	*part5	*part4	*part4	*part4	*part3	*part3	*part3	*part2	*part2	*part2	*part1	*part1	*part1
*staff5	*staff5	*staff5	*	*staff4	*staff4	*	*staff3	*staff3	*	*staff2	*staff2	*	*staff1	*staff1	*
*Iempty	*	*	*	*Iempty	*	*	*Itenor	*	*	*Ialto	*	*	*Ivox	*	*
*I"Baſso Ripieno.	*	*	*	*I"Baſso.	*	*	*I"Tenore	*	*	*I"Alto.	*	*	*I"Canto.	*	*
*I'B rip	*	*	*	*I'B	*	*	*I'T	*	*	*I'A	*	*	*I'C	*	*
*clefF4	*	*	*	*clefF4	*	*	*clefC4	*	*	*clefC3	*	*	*clefC1	*	*
*k[]	*	*	*	*k[]	*	*	*k[]	*	*	*k[]	*	*	*k[]	*	*
*C:	*	*	*	*C:	*	*	*C:	*	*	*C:	*	*	*C:	*	*
*M3/2	*	*	*	*M3/2	*	*	*M3/2	*	*	*M3/2	*	*	*M3/2	*	*
=1	=1	=1	=1	=1	=1	=1	=1	=1	=1	=1	=1	=1	=1	=1	=1
*2\right	*	*	*	*2\right	*	*	*2\right	*	*	*2\right	*	*	*2\right	*	*
!LO:TX:a:t=Tutti.	!	!	!	!	!	!	!	!	!	!	!	!	!LO:TX:a:t=Tutti.	!	!
2A\	De-	3 Poe-	.	2A\	DE-	.	2A/	DE-	.	2e\	DE-	.	2ccn\	DE-	.
!LO:TX:t=P:global:problem=rozdzielacze słów na 1-4 linii	!	!	!	!	!	!	!	!	!	!LO:TX:t=P:global:problem=rozdzielacze słów na 1-4 linii	!	!	!LO:TX:t=P:global:problem=rozdzielacze słów na 1-4 linii	!	!
2A\,<	-us	-nas	.	2A\	-US	.	2A/	-US	.	2e\,<	-US	.	2cc\,<	-US	.
2Bn\	Tu-	cu-	.	2Bn\	tu-	.	2G#X/	tu-	.	2d\	tu-	.	2dd\	Tu-	.
=2	=2	=2	=2	=2	=2	=2	=2	=2	=2	=2	=2	=2	=2	=2	=2
(2.c\	-o-	-cur-	.	(2.c\	-o-	.	(2.A\	-o-	.	(2.e\	-o-	.	(2.cc\	-o-	.
4B\	.	.	.	4B\)	.	.	4B\)	.	.	4d\)	.	.	4dd\)	.	.
2A\)	-rum	-rit	.	2A\	-rum	.	2c\	-rum	.	2c/,<	-rum	.	2ee\	-rum	.
=3	=3	=3	=3	=3	=3	=3	=3	=3	=3	=3	=3	=3	=3	=3	=3
!	!	!	!	!	!	!	!	!	!	!	!	!	!LO:TX:t=P:problem=♮ above	!	!
2G#X\	Tu-	cu-	.	2G#X\	tu-	.	2d\	tu-	.	2e\	tu-	.	2bn\	Tu-	.
2G#\	-o-	-cur-	.	2G#\	-o-	.	2d\	-o-	.	2e\	-o-	.	2b\	-o-	.
2A\,<	-rum	-rit	.	2A\	-rum	.	2c\	-rum	.	2e\	-rum	.	2cc\	-rum	.
=4	=4	=4	=4	=4	=4	=4	=4	=4	=4	=4	=4	=4	=4	=4	=4
(2.F\	mi-	for-	.	(2.F\	Mi-	.	2A\	Mi-	.	(2.f\	Mi-	.	(2.dd\	Mi-	.
.	.	.	.	.	.	.	(4B\	.	.	.	.	.	.	.	.
4E\	.	.	.	4E\	.	.	4c\)	.	.	4g\)	.	.	4ee\)	.	.
2D\)	.	.	.	2D/)	.	.	(4d\	.	.	2a\	.	.	2ff\	.	.
.	.	.	.	.	.	.	4A\)	.	.	.	.	.	.	.	.
=5	=5	=5	=5	=5	=5	=5	=5	=5	=5	=5	=5	=5	=5	=5	=5
2.E\	.	.	.	2.E\	.	.	2.G#X/	.	.	2.e\	.	.	2.bn\	.	.
4E\	-li-	-ti-	.	4E\	-li-	.	4G#/	-li-	.	4e\	-li-	.	4b\	-li-	.
!LO:TX:t=P:problem=kreska taktowa podwójna	!	!	!	!LO:TX:t=P:problem=kreska taktowa podwójna	!	!	!LO:TX:t=P:global:problem=rozdzielacze słów na 1-4 linii	!	!	!	!	!	!	!	!
2E\,<	-tum	-ter.	.	2E\	-tum	.	2G#/,<	-tum	.	2e\	-tum	.	2b\	-tum	.
=6	=6	=6	=6	=6	=6	=6	=6	=6	=6	=6	=6	=6	=6	=6	=6
!	!	!	!LO:DY:a	!	!	!LO:DY:a	!	!	!	!LO:N:vis=0	!	!	!	!	!
2Cn/	Sors	et	f	2C/	Sors	f	2E/	Sors	.	0.r	.	.	1.r	.	.
2E\	et	suſ-	.	2E\	et	.	2Gn/	et	.	.	.	.	.	.	.
2C/	co-	-tu-	.	2C/	Co-	.	4G/	Co-	.	.	.	.	.	.	.
.	.	.	.	.	.	.	4A/	.	.	.	.	.	.	.	.
=7	=7	=7	=7	=7	=7	=7	=7	=7	=7	=7	=7	=7	=7	=7	=7
!	!	!	!	!	!	!	!	!	!	!	!	!	!	!	!LO:DY:a
(4G\	-ro-	-lit	.	(4G\	-ro-	.	(4Bn\	-ro-	.	.	.	.	2g/,<	Sors	f
4F\	.	.	.	4F\	.	.	4A\	.	.	.	.	.	.	.	.
4G\	.	.	.	4G\	.	.	4B\	.	.	.	.	.	2b\	et	.
4A\)	.	.	.	4A\)	.	.	4c\)	.	.	.	.	.	.	.	.
4G\	.	vi-	.	4G\	.	.	4B\	.	.	.	.	.	2g/	Co-	.
4F\	.	.	.	4F\	.	.	4A\	.	.	.	.	.	.	.	.
=8	=8	=8	=8	=8	=8	=8	=8	=8	=8	=8	=8	=8	=8	=8	=8
!	!	!	!	!	!	!	!	!	!	!	!	!LO:DY:a	!	!	!
2E\	.	-ri-	.	2E\	.	.	2Gn/	.	.	2cn/	Sors	f	(4cc\	-ro-	.
.	.	.	.	.	.	.	.	.	.	.	.	.	4b\	.	.
!	!	!	!	!LO:TX:t=P:global:problem=rozdzielacze słów na 1-4 linii	!	!	!	!	!	!	!	!	!	!	!
2E\,<	-na	-li-	.	2E\,<	-na	.	2G/,<	-na	.	2e\	et	.	4cc\	.	.
.	.	.	.	.	.	.	.	.	.	.	.	.	4dd\)	.	.
2E\	co-	-ter	.	2E\	Co-	.	2G/	Co-	.	2c/	co-	.	4cc\	.	.
.	.	.	.	.	.	.	.	.	.	.	.	.	4b\	.	.
=9	=9	=9	=9	=9	=9	=9	=9	=9	=9	=9	=9	=9	=9	=9	=9
4F\	-ro-	vi-	.	(4F\	-ro-	.	4A/	-ro-	.	1fn\	-ro-	.	2a\	.	.
4E\	.	.	.	4E\	.	.	4G/	.	.	.	.	.	.	.	.
4F\	.	.	.	4F\	.	.	(4A/	.	.	.	.	.	2a\,<	-na	.
4G\	.	.	.	4G\)	.	.	4B/	.	.	.	.	.	.	.	.
4F\	.	.	.	4F\	.	.	4A/	.	.	2f\	-na	.	2cc\	Co-	.
*	*	*	*	*	*	*	*custos:A	*	*	*	*	*	*custos:cc	*	*
4E\	.	.	.	4E\	.	.	4G/)	.	.	.	.	.	.	.	.
!LO:LB:g=original	!	!	!	!LO:LB:g=original	!	!	!LO:LB:g=original	!	!	!	!	!	!LO:LB:g=original	!	!
=10	=10	=10	=10	=10	=10	=10	=10	=10	=10	=10	=10	=10	=10	=10	=10
*	*	*	*	*	*	*	*	*	*	*	*ij	*	*	*	*
2D/	.	-ri-	.	2D\	.	.	2A/	.	.	2f#X\	Sors	.	2cc\	-ro-	.
2D/,<	-na	-li-	.	2D\,<	-na	.	2A/,<	-na	.	2f#\	et	.	2cc\,<	-na	.
*	*	*	*	*	*ij	*	*	*	*	*	*	*	*	*ij	*
2G\	Co-	-ter	.	2G\	Co-	.	2Gn/	Co-	.	2g\	co-	.	2b\	Co-	.
=11	=11	=11	=11	=11	=11	=11	=11	=11	=11	=11	=11	=11	=11	=11	=11
2E\	-ro-	et	.	2E\	-ro-	.	2G/	-ro-	.	2g\	-ro-	.	2cc\	-ro-	.
2C/,<	-na	.	.	2C/,<	-na	.	2G/,<	-na	.	2e\,<	-na	.	2cc\,<	-na	.
*	*	*	*	*	*Xij	*	*	*	*	*	*Xij	*	*	*Xij	*
2c\	Sors	su-	.	2c\	Sors	.	2A/	Co-	.	2e\	Co-	.	2cc\	Sors	.
!	!	!	!	!	!	!	!	!	!	!LO:LB:g=original	!	!	!	!	!
=12	=12	=12	=12	=12	=12	=12	=12	=12	=12	=12	=12	=12	=12	=12	=12
1Bn\	et	-stu-	.	1B\	et	.	(1G#X	-ro-	.	1d\	-ro-	.	1dd\	et	.
2A\	Co-	-lit	.	2A\	Co-	.	2A/)	.	.	2e\,<	-na	.	2cc\	Co-	.
=13	=13	=13	=13	=13	=13	=13	=13	=13	=13	=13	=13	=13	=13	=13	=13
2E\	-ro-	suſ-	.	2E\	-ro-	.	2G#X/	-na	.	2e\,<	Sors	.	2bn\	-ro-	.
2E\,<	-na	-tu-	.	2E\,<	-na	.	2G#/,<	.	.	2e\	et	.	2b\,<	-na	.
*	*ij	*	*	*	*ij	*	*	*	*	*	*	*	*	*	*
2A\	Co-	-lit	.	2A\	Co-	.	2A/	Co-	.	2e\	co-	.	2cc\	Co-	.
=14	=14	=14	=14	=14	=14	=14	=14	=14	=14	=14	=14	=14	=14	=14	=14
(2.F\	-ro-	vi-	.	(2.F\	-ro-	.	(2.A/	-ro-	.	(2.fn\	-ro-	.	2a\	-ro-	.
.	.	.	.	.	.	.	.	.	.	.	.	.	(4b\	.	.
4E\)	.	.	.	4E\)	.	.	4G/)	.	.	4g\)	.	.	4cc\)	.	.
2D\	-na	.	.	2D/	-na	.	2F/	-na	.	2a\	-na	.	(4dd\	-na	.
*	*Xij	*	*	*	*Xij	*	*	*	*	*	*	*	*	*	*
.	.	.	.	.	.	.	.	.	.	.	.	.	4cc\)	.	.
=15	=15	=15	=15	=15	=15	=15	=15	=15	=15	=15	=15	=15	=15	=15	=15
2.E\	prae-	-ri-	.	2.E\	prae-	.	2.G#X/	Prae-	.	2.e\	prae-	.	2.b\	prae-	.
4E\	-mi-	-li-	.	4E\	-mi-	.	4G#/	-mi-	.	4e\	-mi-	.	4b\	-mi-	.
!	!	!	!	!	!	!	!	!	!	!LO:TX:t=P:problem=kreska taktowa pojedyncza	!	!	!	!	!
2AA/	-um	-ter.	.	2AA/	-um	.	2A\	-um	.	2e\	-um	.	2cc\,<	-um	.
=16||	=16||	=16||	=16||	=16||	=16||	=16||	=16||	=16||	=16||	=16||	=16||	=16||	=16||	=16||	=16||
!LO:N:vis=00	!	!	!	!LO:N:vis=00	!	!	!	!	!LO:DY:a	!	!	!	!	!	!
00.r	.	.	.	00.r	.	.	2A\	Lau-	f	1.r	.	.	2cc\	Lau-	.
.	.	.	.	.	.	.	2cn\	-des	.	.	.	.	2ee\	-des	.
.	.	.	.	.	.	.	2A\	ca-	.	.	.	.	2cc\	ca-	.
=17	=17	=17	=17	=17	=17	=17	=17	=17	=17	=17	=17	=17	=17	=17	=17
.	.	.	.	.	.	.	(4e\	-nen-	.	2e\	Lau-	.	1b\	-n[en]-	.
.	.	.	.	.	.	.	4d\	.	.	.	.	.	.	.	.
.	.	.	.	.	.	.	4e\	.	.	2g#X\	-des	.	.	.	.
.	.	.	.	.	.	.	4f\)	.	.	.	.	.	.	.	.
.	.	.	.	.	.	.	4e\	.	.	2e\	ca-	.	(4cc\	.	.
.	.	.	.	.	.	.	4d\	.	.	.	.	.	4dd\)	.	.
=18	=18	=18	=18	=18	=18	=18	=18	=18	=18	=18	=18	=18	=18	=18	=18
.	.	.	.	.	.	.	2.c\	.	.	2a\	-nen-	.	2.ee\	-tes	.
.	.	.	.	.	.	.	.	.	.	(4e\	.	.	.	.	.
.	.	.	.	.	.	.	4B\	.	.	4d\)	.	.	(4dd\	ca-	.
.	.	.	.	.	.	.	2A\	-tes	.	(4c\	-tes	.	4cc\	.	.
.	.	.	.	.	.	.	.	.	.	4a\)	.	.	4b\)	.	.
=19	=19	=19	=19	=19	=19	=19	=19	=19	=19	=19	=19	=19	=19	=19	=19
.	.	.	.	.	.	.	2d\	Lau-	.	2.f#X\	Mar-	.	2.a\	.	.
.	.	.	.	.	.	.	2d\	-des	.	.	.	.	.	.	.
.	.	.	.	.	.	.	.	.	.	4f#\	-ty-	.	(4a\	-nen-	.
.	.	.	.	.	.	.	2cn\	ca-	.	2f#\	-ris	.	4b\	.	.
*	*	*	*	*	*	*	*	*	*	*	*	*	*custos:dd	*	*
.	.	.	.	.	.	.	.	.	.	.	.	.	4cc\)	.	.
!	!	!	!	!	!	!	!	!	!	!	!	!	!LO:LB:g=original	!	!
=20	=20	=20	=20	=20	=20	=20	=20	=20	=20	=20	=20	=20	=20	=20	=20
!LO:N:vis=00	!	!	!	!LO:N:vis=00	!	!	!	!	!	!	!	!	!	!	!
00.r	.	.	.	00.r	.	.	2B\	-nen-	.	2g\	Lau-	.	2dd\	.	.
.	.	.	.	.	.	.	2G/	.	.	2d\,<	-des	.	2b\,<	-tes	.
.	.	.	.	.	.	.	2B\	.	.	2g\	ca-	.	2dd\	ca-	.
!	!	!	!	!	!	!	!LO:LB:g=original	!	!	!	!	!	!	!	!
=21	=21	=21	=21	=21	=21	=21	=21	=21	=21	=21	=21	=21	=21	=21	=21
.	.	.	.	.	.	.	2.c\	.	.	1e\	-nen-	.	2g/	-nen-	.
.	.	.	.	.	.	.	.	.	.	.	.	.	4a\	.	.
.	.	.	.	.	.	.	4B\	.	.	.	.	.	4b\	.	.
.	.	.	.	.	.	.	2A\	-tes	.	(4f#X\	-tes	.	(4cc\	-tes	.
.	.	.	.	.	.	.	.	.	.	4e\)	.	.	4a\)	.	.
=22	=22	=22	=22	=22	=22	=22	=22	=22	=22	=22	=22	=22	=22	=22	=22
.	.	.	.	.	.	.	1B\	Mar-	.	1e\	Mar-	.	1f#X/	Mar-	.
.	.	.	.	.	.	.	2B\	-ty-	.	2d#X\	-ty-	.	2f#/	-ty-	.
=23	=23	=23	=23	=23	=23	=23	=23	=23	=23	=23	=23	=23	=23	=23	=23
!	!	!	!	!	!	!	!LO:TX:t=P:problem=kreska taktowa podwójna	!	!	!	!	!	!LO:TX:t=P:problem=kreska taktowa podwójna	!	!
.	.	.	.	.	.	.	1.E,<	-ris.	.	1.e\,<	-ris	.	1.g#X\,<	-ris	.
!	!	!	!	!	!	!	!	!	!	!LO:LB:g=original	!	!	!	!	!
=24	=24	=24	=24	=24	=24	=24	=24	=24	=24	=24	=24	=24	=24	=24	=24
!LO:TX:b:t=P:problem=♮ below	!	!	!	!	!	!	!	!	!	!	!	!	!	!	!
2Gn\	Lau-	Fun-	.	2Gn\	Lau-	.	2Gn/	Lau-	.	2dn\	Lau-	.	2b\	Lau-	.
!	!	!	!	!	!	!	!	!	!	!	!	!	!LO:TX:t=P:problem=♮ above	!	!
2G\	-des	-dens-	.	2G\,<	-des	.	2G/,<	-des	.	2d\,<	-des	.	2bn\,<	-des	.
2G#X\	ca-	-q(ue)	.	2G#X\	ca-	.	2B\	ca-	.	2e\	ca-	.	2b\	ca-	.
=25	=25	=25	=25	=25	=25	=25	=25	=25	=25	=25	=25	=25	=25	=25	=25
2A\	-nen-	pro	.	2A\	-nen-	.	2A\	-nen-	.	2e\	-nen-	.	2ccn\	-nen-	.
2A\,<	-tes	.	.	2A\,<	-tes	.	2A\,<	-tes	.	2e\,<	-tes	.	2cc\,<	-tes	.
*	*ij	*	*	*	*	*	*	*	*	*	*	*	*	*	*
2E\	ca-	Te	.	2E\	ca-	.	2G#X/	ca-	.	2e\	ca-	.	2b\	ca-	.
=26	=26	=26	=26	=26	=26	=26	=26	=26	=26	=26	=26	=26	=26	=26	=26
1Fn\	-nen-	San-	.	1Fn\	-nen-	.	(2A\	-nen-	.	(2fn\	-nen-	.	(2cc\	-nen-	.
.	.	.	.	.	.	.	2B\)	.	.	2g\)	.	.	2dd\)	.	.
2E\	.	.	.	2E\	.	.	[<2c\	-tes	.	2g\	-tes	.	2ee\,<	-tes	.
=27	=27	=27	=27	=27	=27	=27	=27	=27	=27	=27	=27	=27	=27	=27	=27
2D\	-tes	.	.	2D\	-tes	.	2c\,<]	.	.	(2a\	Mar-	.	(2ff\	Mar-	.
*	*Xij	*	*	*	*	*	*	*	*	*	*	*	*	*	*
2G\	Mar-	.	.	2G\	Mar-	.	2c\	Mar-	.	2g\)	.	.	2dd\)	.	.
2GG/	-ty-	-gui-	.	2GG/	-ty-	.	2B\	-ty-	.	2g\	-ty-	.	2dd\	-ty-	.
!LO:LB:g=original	!	!	!	!	!	!	!	!	!	!	!	!	!	!	!
=28	=28	=28	=28	=28	=28	=28	=28	=28	=28	=28	=28	=28	=28	=28	=28
1.C/,<	-ris	-nem	.	1.C/	-ris	.	1.c\,<	-ris	.	1.g\,<	-ris	.	1.ee\,<	-ris	.
!	!	!	!	!LO:LB:g=original	!	!	!	!	!	!	!	!	!	!	!
=29	=29	=29	=29	=29	=29	=29	=29	=29	=29	=29	=29	=29	=29	=29	=29
2c\	ab-	ae-	.	2c\	ab-	.	2c\	ab-	.	2gn\	ab-	.	2ee\	ab-	.
2c\	-sol-	-ter-	.	2c\	-sol-	.	2c\	-sol-	.	2a\	-sol-	.	2ee\	-sol-	.
2Bn\	-ve	-na	.	2Bn\	-ve	.	2d\	-ve	.	2g#X\	-ve	.	2dd\	-ve	.
=30	=30	=30	=30	=30	=30	=30	=30	=30	=30	=30	=30	=30	=30	=30	=30
1A\	ne-	do-	.	1A\	ne-	.	(2e\	ne-	.	(2a\	ne-	.	1ccn\	ne-	.
.	.	.	.	.	.	.	2A/)	.	.	2e\)	.	.	.	.	.
2E\	-xu	-na	.	2E\	-xu	.	2G#X/,<	-xu	.	2e\	-xu	.	2b\	-xu	.
!	!	!	!	!	!	!	!	!	!	!	!	!	!LO:LB:g=original	!	!
=31	=31	=31	=31	=31	=31	=31	=31	=31	=31	=31	=31	=31	=31	=31	=31
*	*	*	*	*	*	*	*	*	*	*	*ij	*	*	*	*
2A\	ab-	ae-	.	2A\	ab-	.	2A\	ab-	.	2e\	ab-	.	2cc\	ab-	.
2A\	-sol-	-ter-	.	2A\	-sol-	.	2A\	-ſol-	.	2e\	-sol-	.	2cc\	-sol-	.
*	*	*	*	*	*	*	*custos:A	*	*	*	*	*	*	*	*
2Gn\	-ve	-na	.	2Gn\	-ve	.	2Bn\	-ve	.	2e\	-ve	.	2b\	-ve	.
!	!	!	!	!	!	!	!LO:LB:g=original	!	!	!	!	!	!	!	!
=32	=32	=32	=32	=32	=32	=32	=32	=32	=32	=32	=32	=32	=32	=32	=32
(2.F\	ne-	do-	.	(2.F\	ne-	.	2A\	ne-	.	(2.f\	ne-	.	(2.a\	ne-	.
.	.	.	.	.	.	.	4B\	.	.	.	.	.	.	.	.
4E\)	.	.	.	4E\)	.	.	4c\	.	.	4g\)	.	.	4b\)	.	.
2D\	-xu	-na	.	2D/	-xu	.	(4d\	.	.	2a\,<	-xu	.	2cc\	-xu	.
*	*	*	*	*	*	*	*	*	*	*	*Xij	*	*	*	*
.	.	.	.	.	.	.	4A\)	.	.	.	.	.	.	.	.
=33	=33	=33	=33	=33	=33	=33	=33	=33	=33	=33	=33	=33	=33	=33	=33
*	*	*	*	*	*	*	*	*	*	*	*	*	*	*ij	*
[<1.E\	Cri-	poſ-	.	1.E\	Cri-	.	1G#X/	.	.	1.e\	Cri-	.	1b\	ne-	.
.	.	.	.	.	.	.	2A/	-xu	.	.	.	.	2cc\	-xu	.
*	*	*	*	*	*	*	*	*	*	*	*	*	*	*Xij	*
=34	=34	=34	=34	=34	=34	=34	=34	=34	=34	=34	=34	=34	=34	=34	=34
1E\]	.	.	.	1E\	.	.	1A\	Cri-	.	1e\	.	.	1b\	Cri-	.
2E\	-mi-	-si-	.	2E\	-mi-	.	2G#X/	-mi-	.	2e\	-mi-	.	2b\	-mi-	.
=35-	=35	=35	=35	=35-	=35	=35	=35	=35	=35	=35	=35	=35	=35	=35	=35
0.AA;/	-nis.	-det.	.	0.AA/	-nis.	.	0.A\	-nis.	.	0.e\;	-nis	.	0.cc#X\;	-nis.	.
!	!	!	!	!	!	!	!	!	!	!LO:LB:g=original	!	!	!	!	!
=36||	=36||	=36||	=36||	=36||	=36||	=36||	=36||	=36||	=36||	=36||	=36||	=36||	=36||	=36||	=36||
*M2/2	*	*	*	*M2/2	*	*	*M2/2	*	*	*M2/2	*	*	*M2/2	*	*
*met(c|)	*	*	*	*met(c|)	*	*	*met(c|)	*	*	*met(c|)	*	*	*met(c|)	*	*
!	!	!	!	!	!	!	!LO:TX:a:t=9.	!	!	!	!	!	!	!	!
00r	.	.	.	00r	.	.	00r	.	.	00r	.	.	1gn\	Hic	.
=37	=37	=37	=37	=37	=37	=37	=37	=37	=37	=37	=37	=37	=37	=37	=37
.	.	.	.	.	.	.	.	.	.	.	.	.	(2.ccn\	nem-	.
.	.	.	.	.	.	.	.	.	.	.	.	.	8dd\L)	.	.
.	.	.	.	.	.	.	.	.	.	.	.	.	8cc\J	.	.
=38	=38	=38	=38	=38	=38	=38	=38	=38	=38	=38	=38	=38	=38	=38	=38
.	.	.	.	.	.	.	.	.	.	.	.	.	2b\	.	.
.	.	.	.	.	.	.	.	.	.	.	.	.	2g/,<	-pe	.
=39	=39	=39	=39	=39	=39	=39	=39	=39	=39	=39	=39	=39	=39	=39	=39
.	.	.	.	.	.	.	.	.	.	.	.	.	2a\	mun-	.
.	.	.	.	.	.	.	.	.	.	.	.	.	2b\	-di	.
=40	=40	=40	=40	=40	=40	=40	=40	=40	=40	=40	=40	=40	=40	=40	=40
!	!	!	!	!	!	!	!	!	!	!LO:TX:t=P:problem=♮ above	!	!	!	!	!
00r	.	.	.	00r	.	.	00r	.	.	1cn\	Hic	.	(2.cc\	gau-	.
.	.	.	.	.	.	.	.	.	.	.	.	.	4b\)	.	.
=41	=41	=41	=41	=41	=41	=41	=41	=41	=41	=41	=41	=41	=41	=41	=41
.	.	.	.	.	.	.	.	.	.	(2.fn\	nem-	.	2.a\	.	.
.	.	.	.	.	.	.	.	.	.	8g\L	.	.	4a\	-di-	.
.	.	.	.	.	.	.	.	.	.	8f\J)	.	.	.	.	.
=42	=42	=42	=42	=42	=42	=42	=42	=42	=42	=42	=42	=42	=42	=42	=42
.	.	.	.	.	.	.	.	.	.	2e\	.	.	2g/,<	-a	.
*	*	*	*	*	*	*	*	*	*	*	*	*	*custos:b	*	*
!	!	!	!	!	!	!	!	!	!	!	!	!	!LO:TX:t=P:problem=skreślony dźwięk 2g	!	!
.	.	.	.	.	.	.	.	.	.	2c/,<	-pe	.	2a/	hic	.
!	!	!	!	!	!	!	!	!	!	!	!	!	!LO:LB:g=original	!	!
=43	=43	=43	=43	=43	=43	=43	=43	=43	=43	=43	=43	=43	=43	=43	=43
.	.	.	.	.	.	.	.	.	.	(2d\	mun-	.	2b\	nem-	.
.	.	.	.	.	.	.	.	.	.	2e\)	.	.	2cc\	-pe	.
=44	=44	=44	=44	=44	=44	=44	=44	=44	=44	=44	=44	=44	=44	=44	=44
00r	.	.	.	00r	.	.	1r	.	.	2.f\	-di	.	(4a\	mun-	.
.	.	.	.	.	.	.	.	.	.	.	.	.	4b\)	.	.
.	.	.	.	.	.	.	.	.	.	.	.	.	(4cc\	-di	.
.	.	.	.	.	.	.	.	.	.	4e\	gau-	.	4a\)	.	.
=45	=45	=45	=45	=45	=45	=45	=45	=45	=45	=45	=45	=45	=45	=45	=45
!	!	!	!	!	!	!	!	!	!LO:DY:a	!	!	!	!	!	!
.	.	.	.	.	.	.	1G/	Hic	f	2.d\	.	.	2b\	gau-	.
.	.	.	.	.	.	.	.	.	.	.	.	.	2b\	-di-	.
.	.	.	.	.	.	.	.	.	.	4d\	-di-	.	.	.	.
=46	=46	=46	=46	=46	=46	=46	=46	=46	=46	=46	=46	=46	=46	=46	=46
.	.	.	.	.	.	.	(2.c\	nem-	.	2c\,<	-a	.	2cc\,<	-a	.
.	.	.	.	.	.	.	.	.	.	2e\	hic	.	1g	mun-	.
.	.	.	.	.	.	.	8d\L	.	.	.	.	.	.	.	.
.	.	.	.	.	.	.	8c\J)	.	.	.	.	.	.	.	.
=47	=47	=47	=47	=47	=47	=47	=47	=47	=47	=47	=47	=47	=47-	=47	=47
.	.	.	.	.	.	.	2B\	.	.	2d\	nem-	.	.	.	.
.	.	.	.	.	.	.	2G/,<	-pe	.	2B/,<	-pe	.	2g/	-di	.
=48	=48	=48	=48	=48	=48	=48	=48	=48	=48	=48	=48	=48	=48	=48	=48
1r	.	.	.	1r	.	.	2A\	mun-	.	(2c\	mun-	.	2fn/	gau-	.
.	.	.	.	.	.	.	2B\	-di	.	2d\)	.	.	2d/	-di-	.
=49	=49	=49	=49	=49	=49	=49	=49	=49	=49	=49	=49	=49	=49	=49	=49
1C/	Hic	Ob	.	1C/	Hic	.	2.c\	gau-	.	2G/,<	-di	.	1e/,<	-a	.
.	.	.	.	.	.	.	.	.	.	2g\	hic	.	.	.	.
.	.	.	.	.	.	.	4B\	.	.	.	.	.	.	.	.
=50	=50	=50	=50	=50	=50	=50	=50	=50	=50	=50	=50	=50	=50	=50	=50
2.F\	nem-	hoc	.	2.F\	nem-	.	2A/	.	.	2.c/	nem-	.	00r	.	.
.	.	.	.	.	.	.	2A/	-di-	.	.	.	.	.	.	.
8G\L	.	pre-	.	8G\L	.	.	.	.	.	4d/	-pe	.	.	.	.
8F\J	.	.	.	8F\J	.	.	.	.	.	.	.	.	.	.	.
=51	=51	=51	=51	=51	=51	=51	=51	=51	=51	=51	=51	=51	=51	=51	=51
2E\	.	-ca-	.	2E\	.	.	2G/,<	-a	.	2e\	mun-	.	.	.	.
*	*	*	*	*custos:D	*	*	*	*	*	*custos:f	*	*	*	*	*
2C/,<	-pe	-tu	.	2C/,<	-pe	.	2c\	et	.	2e\,<	-di	.	.	.	.
!LO:LB:g=original	!	!	!	!LO:LB:g=original	!	!	!	!	!	!LO:LB:g=original	!	!	!	!	!
=52	=52	=52	=52	=52	=52	=52	=52	=52	=52	=52	=52	=52	=52	=52	=52
2D\	mun-	sup-	.	2D\	mun-	.	2A/	blan-	.	(2f\	gau-	.	.	.	.
2E\	-di	.	.	2E\	-di	.	2G/	-da	.	4e\	.	.	.	.	.
*	*	*	*	*	*	*	*custos:A	*	*	*	*	*	*	*	*
.	.	.	.	.	.	.	.	.	.	4d\)	.	.	.	.	.
!	!	!	!	!	!	!	!LO:LB:g=original	!	!	!	!	!	!	!	!
=53	=53	=53	=53	=53	=53	=53	=53	=53	=53	=53	=53	=53	=53	=53	=53
(2.F\	gau-	.	.	2.F\	gau-	.	2.A/	frau-	.	2c/	.	.	.	.	.
.	.	.	.	.	.	.	.	.	.	4d\	.	.	.	.	.
4E\)	.	.	.	4E\	.	.	4G/	-dum	.	4e\	.	.	.	.	.
=54	=54	=54	=54	=54	=54	=54	=54	=54	=54	=54	=54	=54	=54	=54	=54
2D/	.	.	.	2.D/	.	.	2A\	pa-	.	2.f\	.	.	1r	.	.
2D/	-di-	-pli-	.	.	.	.	2B\	-bu-	.	.	.	.	.	.	.
.	.	.	.	4D/	-di-	.	.	.	.	4f\	-di-	.	.	.	.
=55	=55	=55	=55	=55	=55	=55	=55	=55	=55	=55	=55	=55	=55	=55	=55
2C/,<	-a	-ci	.	2C/,<	-a	.	1c\,<	-la	.	2e\,<	-a	.	2r	.	.
2E\	et	Te	.	2E\	et	.	.	.	.	2g\	et	.	(4cc\	et	.
.	.	.	.	.	.	.	.	.	.	.	.	.	4b\)	.	.
=56	=56	=56	=56	=56	=56	=56	=56	=56	=56	=56	=56	=56	=56	=56	=56
(4F\	blan-	pos-	.	(4F\	blan-	.	2r	.	.	2f\	blan-	.	(4a\	blan-	.
4G\)	.	.	.	4G\)	.	.	.	.	.	.	.	.	4b\)	.	.
(4A\	-da	-ci-	.	(4A\	-da	.	2c\	im-	.	(4e\	-da	.	(4cc\	-da	.
4F\)	.	.	.	4F\)	.	.	.	.	.	4f\)	.	.	4a\)	.	.
=57	=57	=57	=57	=57	=57	=57	=57	=57	=57	=57	=57	=57	=57	=57	=57
2G\	frau-	-m(us)	.	2G\	frau-	.	2B\	-bu-	.	2d\	frau-	.	2b\	frau-	.
2G\	-dum	pi-	.	2G\	-dum	.	1G	.	.	2d\	-dum	.	2b\,<	-dum	.
=58	=58	=58	=58	=58	=58	=58	=58-	=58	=58	=58	=58	=58	=58	=58	=58
2C/	pa-	-iſ-	.	2C/	pa-	.	.	.	.	2e\	pa-	.	2cc\	pa-	.
2D/	-bu-	-si-	.	2D\	-bu-	.	2d\	-ta	.	2f#X\	-bu-	.	2a\	-bu-	.
=59	=59	=59	=59	=59	=59	=59	=59	=59	=59	=59	=59	=59	=59	=59	=59
2GG/,<	-la	-me	.	2G\,<	-la	.	2B\	fel-	.	2d\,<	-la	.	1g\,<	-la	.
2C/	im-	in	.	2C/	im-	.	1c\	.	.	(2e\	pa-	.	.	.	.
=60	=60	=60	=60	=60	=60	=60	=60-	=60	=60	=60	=60	=60	=60	=60	=60
2F\	-bu-	hoc	.	2F\	-bu-	.	.	.	.	2fn\)	.	.	2r	.	.
*	*	*	*	*	*	*	*	*	*	*	*	*	*custos:cc	*	*
2G\	-ta	tri-	.	2G\	-ta	.	2B\	-le	.	2d\	-bu-	.	2g/	im-	.
!	!	!	!	!	!	!	!	!	!	!	!	!	!LO:LB:g=original	!	!
=61	=61	=61	=61	=61	=61	=61	=61	=61	=61	=61	=61	=61	=61	=61	=61
2.C/	fel-	-um-	.	2.C/	fel-	.	2c\	de-	.	1e\,<	-la	.	2.cc\	-bu-	.
.	.	.	.	.	.	.	[2G/	.	.	.	.	.	.	.	.
4C/	-le	-pho	.	4C/	-le	.	.	.	.	.	.	.	8dd\L	.	.
.	.	.	.	.	.	.	.	.	.	.	.	.	8cc\J	.	.
=62	=62	=62	=62	=62	=62	=62	=62	=62	=62	=62	=62	=62	=62	=62	=62
2GG/	de-	mar-	.	2GG/	de-	.	2.G/]	.	.	2r	.	.	2b\	.	.
1C	.	.	.	1C	.	.	.	.	.	2e\	im-	.	2g/,<	-ta	.
.	.	.	.	.	.	.	4F/	.	.	.	.	.	.	.	.
=63-	=63	=63	=63	=63-	=63	=63	=63	=63	=63	=63	=63	=63	=63	=63	=63
.	.	.	.	.	.	.	2E/	.	.	(2c/	-bu-	.	2a\	fel-	.
2BB/	.	.	.	2BB/	.	.	1G/	.	.	2d/)	.	.	2b\,<	-le	.
=64	=64	=64	=64	=64	=64	=64	=64-	=64	=64	=64	=64	=64	=64	=64	=64
2.AA/	.	.	.	2.AA/	.	.	.	.	.	2c/,<	-ta	.	2.cc\	de-	.
*	*	*	*	*	*	*	*	*	*	*custos:d	*	*	*	*	*
.	.	.	.	.	.	.	2F#X/	-pu-	.	2A/	fel-	.	.	.	.
*	*	*	*	*custos:GG	*	*	*	*	*	*	*	*	*	*	*
4AA/	-pu-	-ty-	.	4AA/	-pu-	.	.	.	.	.	.	.	4cc\	-pu-	.
!	!	!	!	!LO:LB:g=original	!	!	!	!	!	!LO:LB:g=original	!	!	!	!	!
=65	=65	=65	=65	=65	=65	=65	=65	=65	=65	=65	=65	=65	=65	=65	=65
2GG/,<	-tans	-ris	.	2GG/,<	-tans	.	1G/,<	-tans	.	(2d\	-le	.	2b\,<	-tans	.
2G\	im-	in	.	2G\	im-	.	.	.	.	2g\)	.	.	2b\	fel-	.
!LO:LB:g=original	!	!	!	!	!	!	!	!	!	!	!	!	!	!	!
=66	=66	=66	=66	=66	=66	=66	=66	=66	=66	=66	=66	=66	=66	=66	=66
(4A\	-bu-	hoc	.	(4A\	-bu-	.	2r	.	.	2.e\	de-	.	(4cc\	.	.
4G\)	.	.	.	4G\)	.	.	.	.	.	.	.	.	4b\)	.	.
(4A\	-ta	tri-	.	(4A\	-ta	.	2c\	de-	.	.	.	.	(4cc\	.	.
4F\)	.	.	.	4F\)	.	.	.	.	.	4f\	.	.	4a\)	.	.
=67	=67	=67	=67	=67	=67	=67	=67	=67	=67	=67	=67	=67	=67	=67	=67
2G\	fel-	-um-	.	2G\	fel-	.	2B\	.	.	2d\	.	.	2b\	.	.
2C/	-le	-pho	.	2C/	-le	.	2e\	.	.	1g	-pu-	.	2cc\	-le	.
=68	=68	=68	=68	=68	=68	=68	=68	=68	=68	=68-	=68	=68	=68	=68	=68
2.D\	de-	Mar-	.	2.D\	de-	.	2.d\	-pu-	.	.	.	.	2.a\	de-	.
.	.	.	.	.	.	.	.	.	.	2f#X\	.	.	.	.	.
*	*	*	*	*	*	*	*custos:d	*	*	*	*	*	*	*	*
4D\	-pu-	-ty-	.	4D\	-pu-	.	4d\	.	.	.	.	.	4a\	-pu-	.
!	!	!	!	!	!	!	!LO:LB:g=original	!	!	!	!	!	!	!	!
=69	=69	=69	=69	=69	=69	=69	=69	=69	=69	=69	=69	=69	=69	=69	=69
2GG/	-tans	-ris	.	2GG/,<	-tans	.	2d\,<	-tans	.	2g\,<	-tans	.	2b\,<	-tans	.
!	!	!	!	!	!	!	!	!	!LO:DY:a	!	!	!	!	!	!
2rBB	.	.	.	2rBB	.	.	2G/	per-	f	2g\	per-	.	2b\	per-	.
=70	=70	=70	=70	=70	=70	=70	=70	=70	=70	=70	=70	=70	=70	=70	=70
00r	.	.	.	00r	.	.	2A\	-ve-	.	2f#X\	-ve-	.	2cc\	-ve-	.
.	.	.	.	.	.	.	2B\	-nit	.	2g\,<	-nit	.	2dd\	-nit	.
=71	=71	=71	=71	=71	=71	=71	=71	=71	=71	=71	=71	=71	=71	=71	=71
.	.	.	.	.	.	.	2c\	ad	.	2g\	ad	.	2ee\	ad	.
.	.	.	.	.	.	.	2A/	cae-	.	2f#X\	cae-	.	2cc\	cae-	.
=72	=72	=72	=72	=72	=72	=72	=72	=72	=72	=72	=72	=72	=72	=72	=72
.	.	.	.	.	.	.	2G/	-le-	.	1.g\	-le-	.	2dd\	-le-	.
.	.	.	.	.	.	.	2c\	.	.	.	.	.	(4cc\	.	.
.	.	.	.	.	.	.	.	.	.	.	.	.	4b\)	.	.
=73	=73	=73	=73	=73	=73	=73	=73	=73	=73	=73-	=73	=73	=73	=73	=73
.	.	.	.	.	.	.	2d\	.	.	.	.	.	2.a\	.	.
.	.	.	.	.	.	.	2D/	-sti-	.	2f#X\	-sti-	.	.	.	.
.	.	.	.	.	.	.	.	.	.	.	.	.	4a\	-sti-	.
=74	=74	=74	=74	=74	=74	=74	=74	=74	=74	=74	=74	=74	=74	=74	=74
*	*	*	*	*	*	*	*	*	*	*	*	*	*custos:cc	*	*
2r	.	.	.	2r	.	.	2G/,<	-a	.	2g\,<	-a	.	2b\,<	-a	.
!	!	!	!	!	!	!	!	!	!	!	!	!	!LO:LB:g=original	!	!
2C/	per-	di-	.	2C/	per-	.	2e\	per-	.	2g\	per-	.	2cc\	per-	.
=75	=75	=75	=75	=75	=75	=75	=75	=75	=75	=75	=75	=75	=75	=75	=75
2D\	-ve-	-mit-	.	2D\	-ve-	.	2d\	-ve-	.	2fn\	-ve-	.	2b\	-ve-	.
2E\	-nit	-te	.	2E\	-nit	.	2c\	-nit	.	2g\	-nit	.	2ee\	-nit	.
=76	=76	=76	=76	=76	=76	=76	=76	=76	=76	=76	=76	=76	=76	=76	=76
2F\	ad	no-	.	2F\	ad	.	2c\	ad	.	2a\	ad	.	2cc\	ad	.
2D/	cae-	-xam	.	2D/	cae-	.	2Bn\	cae-	.	2f\	cae-	.	2dd\	cae-	.
=77	=77	=77	=77	=77	=77	=77	=77	=77	=77	=77	=77	=77	=77	=77	=77
2C/	-le-	ser-	.	2C/	-le-	.	2c\	-le-	.	2g\	-le-	.	2ee\	-le-	.
2F\	.	.	.	2F\	.	.	2A/	.	.	(4fn\	.	.	1cc	.	.
.	.	.	.	.	.	.	.	.	.	4e\)	.	.	.	.	.
=78	=78	=78	=78	=78	=78	=78	=78	=78	=78	=78	=78	=78	=78-	=78	=78
2.G\	.	.	.	2.G\	.	.	2.G/	.	.	2.d\	.	.	.	.	.
.	.	.	.	.	.	.	.	.	.	.	.	.	2b\	-sti-	.
4GG/	-sti-	-vu-	.	4GG/	-sti-	.	4G/	-sti-	.	4d\	-sti-	.	.	.	.
=79	=79	=79	=79	=79	=79	=79	=79	=79	=79	=79	=79	=79	=79	=79	=79
2C/,<	-a	-lis	.	2C/,<	-a	.	2G/,<	-a	.	2e\,<	-a	.	2cc,<\	-a	.
*	*	*	*	*	*	*	*	*	*	*custos:f	*	*	*	*	*
2c\	per-	di-	.	2c\	per-	.	2c\	per-	.	2e\	per-	.	2rb	.	.
!	!	!	!	!	!	!	!	!	!	!LO:LB:g=original	!	!	!	!	!
=80	=80	=80	=80	=80	=80	=80	=80	=80	=80	=80	=80	=80	=80	=80	=80
!	!	!	!	!	!	!	!	!	!	!	!	!	!	!	!LO:DY:b:t=forte
2Bn\	-ve-	-mit-	.	2Bn\	-ve-	.	(2d\	-ve-	.	2f\	-ve-	.	1gg\	per-	f
*	*	*	*	*custos:A	*	*	*	*	*	*	*	*	*	*	*
2c\	.	.	.	2c\	.	.	2e\)	.	.	1e\	-nit	.	.	.	.
!	!	!	!	!LO:LB:g=original	!	!	!	!	!	!	!	!	!	!	!
=81	=81	=81	=81	=81	=81	=81	=81	=81	=81	=81-	=81	=81	=81	=81	=81
2A\	-nit	.	.	2A\	-nit	.	(2c\	-nit	.	.	.	.	1ffn\	-ve-	.
*	*	*	*	*	*	*	*custos:B	*	*	*	*	*	*	*	*
2Bn\	.	-te	.	2Bn\	.	.	2d\)	.	.	[2d/	ad	.	.	.	.
!	!	!	!	!	!	!	!LO:LB:g=original	!	!	!	!	!	!	!	!
=82	=82	=82	=82	=82	=82	=82	=82	=82	=82	=82	=82	=82	=82	=82	=82
(2G\	ad	no-	.	(2Gn\	ad	.	2B\	ad	.	2d/]	.	.	1ee\,<	-nit	.
*custos:F	*	*	*	*	*	*	*	*	*	*	*	*	*	*	*
2A\)	.	.	.	2A\)	.	.	1c	cae-	.	2c/	cae-	.	.	.	.
!LO:LB:g=original	!	!	!	!	!	!	!	!	!	!	!	!	!	!	!
=83	=83	=83	=83	=83	=83	=83	=83-	=83	=83	=83	=83	=83	=83	=83	=83
(2F\	cae-	-xam	.	(2F\	cae-	.	.	.	.	2a\	-le-	.	1dd\	ad	.
2G\)	.	.	.	2G\)	.	.	[<2Bn\	.	.	1g	.	.	.	.	.
=84	=84	=84	=84	=84	=84	=84	=84	=84	=84	=84-	=84	=84	=84	=84	=84
(2E\	-le-	ser-	.	(2E\	-le-	.	2B\]	.	.	.	.	.	2cc\	cae-	.
2F\)	.	.	.	2F\)	.	.	1A	-le-	.	2fn\	.	.	1cc	-le-	.
=85	=85	=85	=85	=85	=85	=85	=85-	=85	=85	=85	=85	=85	=85-	=85	=85
2.D/	.	.	.	2.D/	.	.	.	.	.	2.f\	.	.	.	.	.
.	.	.	.	.	.	.	2B\	-sti-	.	.	.	.	2b\	-sti-	.
4D/	-sti-	-vu-	.	4D/	-sti-	.	.	.	.	4f\	-sti-	.	.	.	.
=86	=86	=86	=86	=86	=86	=86	=86	=86	=86	=86	=86	=86	=86	=86	=86
2C/,<	-a	-lis	.	2C/,<	-a	.	2G/,<	-a	.	2e\,<	-a	.	2cc\,<	-a	.
2E\	per-	di-	.	2E\	per-	.	2G/	per-	.	2g\	per-	.	2cc\	per-	.
=87	=87	=87	=87	=87	=87	=87	=87	=87	=87	=87	=87	=87	=87	=87	=87
4F\	-ve-	-mit-	.	4F\	-ve-	.	4A/	-ve-	.	4fn\	-ve-	.	4cc\	-ve-	.
4F\,<	-nit	-te	.	4F\,<	-nit	.	4A/,<	-nit	.	4f\,<	-nit	.	4cc\	-nit	.
4C/	ad	no-	.	4C/	ad	.	4G/	ad	.	4e\	ad	.	4cc\	ad	.
4C/	cae-	-xam	.	4C/	cae-	.	4G/	cae-	.	4e\	cae-	.	4cc\	cae-	.
=88	=88	=88	=88	=88	=88	=88	=88	=88	=88	=88	=88	=88	=88	=88	=88
1.F\	-le-	ser-	.	1.F\	-le-	.	[<1A	-le-	.	[<1f\	-le-	.	1.cc\	-le-	.
=89-	=89	=89	=89	=89-	=89	=89	=89	=89	=89	=89	=89	=89	=89-	=89	=89
!	!	!	!	!LO:N:xstem:cue:vis=4	!	!	!LO:N:xstem:cue:vis=4	!	!	!LO:N:xstem:cue:vis=4	!	!	!LO:N:xstem:cue:vis=4	!	!
.	.	.	.	.	.	.	2A/]	.	.	2f\]	.	.	.	.	.
2F\	-sti-	-vu-	.	2F\	-sti-	.	2A/	-sti-	.	2f\	-sti-	.	2cc\	-sti-	.
=90-	=90	=90	=90	=90	=90	=90	=90	=90	=90	=90-	=90	=90	=90-	=90	=90
*	*	*	*	*	*	*	*custos:A	*	*	*custos:e	*	*	*	*	*
!	!	!	!	!	!	!	!	!	!	!LO:N:vis=0	!	!	!	!	!
0.C/;	-a	-lis.	.	0.C/;	-a	.	0.G/;	-a.	.	0.e\;	-a.	.	0.cc\;	-a	.
!LO:PB:g=original	!	!	!	!LO:PB:g=original	!	!	!LO:PB:g=original	!	!	!LO:PB:g=original	!	!	!LO:PB:g=original	!	!
=91||	=91||	=91||	=91||	=91||	=91||	=91||	=91||	=91||	=91||	=91||	=91||	=91||	=91||	=91||	=91||
*M3/2	*	*	*	*M3/2	*	*	*M3/2	*	*	*M3/2	*	*	*M3/2	*	*
!LO:TX:a:t=P:problem=następne zwrotki podpisane wcześniej	!	!	!	!LO:TX:a:t=Tutti.	!	!	!	!	!	!	!	!	!	!	!
1.ryy	.	.	.	2A\	Poe-	.	2A/	Poe-	.	2e\	Poe-	.	2ccn\	Poe-	.
.	.	.	.	2A\,<	-nas	.	2A/	-nas	.	2e\	-nas	.	2cc\,<	-nas	.
.	.	.	.	2B\	cu-	.	2G#X/	cu-	.	2d\	cu-	.	2dd\	cu-	.
=92	=92	=92	=92	=92	=92	=92	=92	=92	=92	=92	=92	=92	=92	=92	=92
1.ryy	.	.	.	(2.c\	-cur-	.	(2.A\	-cur-	.	(2.e\	-cur-	.	(2.cc\	-cur-	.
.	.	.	.	4B\)	.	.	4B\)	.	.	4d\)	.	.	4dd\	.	.
.	.	.	.	2A\	-rit	.	2c\	-rit	.	2c/,<	-rit	.	2ee\)	-rit	.
=93	=93	=93	=93	=93	=93	=93	=93	=93	=93	=93	=93	=93	=93	=93	=93
1.ryy	.	.	.	2G#X\	cu-	.	2d\	Cu-	.	2e\	cu-	.	2b\	cu-	.
.	.	.	.	2G#\,<	-cur-	.	2d\	-cur-	.	2e\	-cur-	.	2b\	-cur-	.
.	.	.	.	2A\	-rit	.	(4c\	.	.	2e\	-rit	.	2cc\	-rit	.
.	.	.	.	.	.	.	4B\)	.	.	.	.	.	.	.	.
=94	=94	=94	=94	=94	=94	=94	=94	=94	=94	=94	=94	=94	=94	=94	=94
1.ryy	.	.	.	(2.F\	for-	.	2A/	-rit	.	(2.f\	for-	.	(2.dd\	for-	.
.	.	.	.	.	.	.	(4B\	for-	.	.	.	.	.	.	.
.	.	.	.	4E\	.	.	4c\	.	.	4g\	.	.	4ee\	.	.
.	.	.	.	2D/)	.	.	4d\)	.	.	2a\)	.	.	2ff\)	.	.
.	.	.	.	.	.	.	4A\	.	.	.	.	.	.	.	.
=95	=95	=95	=95	=95	=95	=95	=95	=95	=95	=95	=95	=95	=95	=95	=95
1.ryy	.	.	.	2.E\	.	.	2.G#X/	.	.	2.e\	.	.	2.b\	.	.
.	.	.	.	4E\	-ti-	.	4G#/	-ti-	.	4e\	-ti-	.	4b\	-ti-	.
!	!	!	!	!LO:TX:t=P:problem=kreska taktowa podwójna	!	!	!	!	!	!	!	!	!	!	!
.	.	.	.	2E\	-ter	.	2G#/,<	-ter:	.	2e\	-ter.	.	2b\	-ter:	.
=96	=96	=96	=96	=96	=96	=96	=96	=96	=96	=96	=96	=96	=96	=96	=96
!	!	!	!	!	!	!LO:DY:a	!	!	!	!LO:N:vis=0	!	!	!	!	!
1.ryy	.	.	.	2C/	et	f	2E/	et	.	0.r	.	.	1.rdd	.	.
.	.	.	.	2En\	su-	.	2Gn/	su-	.	.	.	.	.	.	.
.	.	.	.	2C/	-ſtu-	.	(4G/	-ſtu-	.	.	.	.	.	.	.
.	.	.	.	.	.	.	4A/)	.	.	.	.	.	.	.	.
=97	=97	=97	=97	=97	=97	=97	=97	=97	=97	=97	=97	=97	=97	=97	=97
1.ryy	.	.	.	(4G\	-lit	.	(4B\	-lit	.	.	.	.	2g\	et	.
.	.	.	.	4F\	.	.	4A\	.	.	.	.	.	.	.	.
.	.	.	.	4G\)	.	.	4B\	.	.	.	.	.	2b\	sus-	.
.	.	.	.	4A\,<	.	.	4c\)	.	.	.	.	.	.	.	.
.	.	.	.	(4G\	vi-	.	4B\	vi-	.	.	.	.	2g\	-tu-	.
.	.	.	.	4F\)	.	.	4A\	.	.	.	.	.	.	.	.
=98	=98	=98	=98	=98	=98	=98	=98	=98	=98	=98	=98	=98	=98	=98	=98
1.ryy	.	.	.	2.E\	-ri-	.	2.Gn/	-ri-	.	2c/	et	.	(4cc\	-lit	.
.	.	.	.	.	.	.	.	.	.	.	.	.	4b\	.	.
.	.	.	.	.	.	.	.	.	.	2e\	suſ-	.	4cc\)	.	.
.	.	.	.	4E\	-li-	.	4G/	-li-	.	.	.	.	(4dd\	Vi-	.
.	.	.	.	2E\	-ter	.	2G/	-ter	.	2c/	-tu-	.	4cc\	.	.
.	.	.	.	.	.	.	.	.	.	.	.	.	4b\)	.	.
=99	=99	=99	=99	=99	=99	=99	=99	=99	=99	=99	=99	=99	=99	=99	=99
1.ryy	.	.	.	(4F\	vi-	.	(4A/	vi-	.	1fn\,<	-lit	.	2.a\	ri-	.
.	.	.	.	4E\	.	.	4G/	.	.	.	.	.	.	.	.
.	.	.	.	4F\	.	.	4A/	.	.	.	.	.	.	.	.
.	.	.	.	4G\	.	.	4B/)	.	.	.	.	.	4b\	-li-	.
.	.	.	.	4F\	.	.	4A/	.	.	2f\	et	.	2cc\	-ter	.
*	*	*	*	*	*	*	*custos:A	*	*	*	*	*	*	*	*
.	.	.	.	4E\)	.	.	4G/	.	.	.	.	.	.	.	.
!	!	!	!	!LO:LB:g=original	!	!	!LO:LB:g=original	!	!	!	!	!	!	!	!
=100	=100	=100	=100	=100	=100	=100	=100	=100	=100	=100	=100	=100	=100	=100	=100
1.ryy	.	.	.	2.D/	-ri-	.	2.A/	-ri-	.	2.f#X\	suſ-	.	2cc\	et	.
.	.	.	.	.	.	.	.	.	.	.	.	.	2cc\	sus-	.
.	.	.	.	4D/	-li-	.	4A/	-li-	.	4f#\	-tu-	.	.	.	.
.	.	.	.	2G\	-ter	.	2Gn/	-ter	.	2g\	-lit	.	2b\	-tu-	.
=101	=101	=101	=101	=101	=101	=101	=101	=101	=101	=101	=101	=101	=101	=101	=101
1.ryy	.	.	.	(2E\	et	.	(1G	et	.	(2g\	suſ-	.	2cc\,<	-lit	.
!	!	!	!	!	!	!	!	!	!	!	!	!	!LO:LB:g=original	!	!
.	.	.	.	2C/)	.	.	.	.	.	2e\)	.	.	2cc\	suſ-	.
.	.	.	.	2c\	sus-	.	2A/)	.	.	2e\	-tu-	.	2cc\	-tu-	.
=102	=102	=102	=102	=102	=102	=102	=102	=102	=102	=102	=102	=102	=102	=102	=102
1.ryy	.	.	.	2.B\	-tu-	.	2.G#X/	suſ-	.	1d\,<	-lit	.	1dd\,<	-lit	.
.	.	.	.	4B\	.	.	4G#/	-tu-	.	.	.	.	.	.	.
*	*	*	*	*	*	*	*	*	*	*custos:e	*	*	*	*	*
.	.	.	.	2A\,<	-lit	.	2A/	-lit	.	2e\	et	.	2cc\	et	.
!	!	!	!	!	!	!	!	!	!	!LO:LB:g=original	!	!	!	!	!
=103	=103	=103	=103	=103	=103	=103	=103	=103	=103	=103	=103	=103	=103	=103	=103
*	*	*	*	*	*	*	*	*ij	*	*	*	*	*	*	*
1.ryy	.	.	.	2.E\	suſ-	.	2.G#X/	suſ-	.	2.e\	suſ-	.	2.b\	suſ-	.
.	.	.	.	.	.	.	.	.	.	.	.	.	.	-tu-	.
.	.	.	.	4E\	-tu-	.	4G#/	-tu-	.	4e\	-tu-	.	4b\	.	.
.	.	.	.	2A\	-lit	.	2A/	-lit	.	2e\	-lit	.	2cc\	-lit	.
*	*	*	*	*	*	*	*	*Xij	*	*	*	*	*	*	*
=104	=104	=104	=104	=104	=104	=104	=104	=104	=104	=104	=104	=104	=104	=104	=104
1.ryy	.	.	.	(2.F\	vi-	.	(2.A/	vi-	.	(2f\	vi-	.	(2a\	vi-	.
.	.	.	.	.	.	.	.	.	.	2g\)	.	.	4b\	.	.
.	.	.	.	4E\	.	.	4Gn/)	.	.	.	.	.	4cc\)	.	.
.	.	.	.	2D/)	.	.	2F/	.	.	2a\	.	.	(4dd\	-ri-	.
.	.	.	.	.	.	.	.	.	.	.	.	.	4cc\)	.	.
=105	=105	=105	=105	=105	=105	=105	=105	=105	=105	=105	=105	=105	=105	=105	=105
1.ryy	.	.	.	2.E\	-ri-	.	2.G#X/	-ri-	.	2.e\	-ri-	.	2.b\	-li-	.
.	.	.	.	4E\	-li-	.	4G#/	-li-	.	4e\	-li-	.	4b\	.	.
!	!	!	!	!	!	!	!LO:TX:t=P:problem=kreska taktowa podwójna	!	!	!	!	!	!LO:TX:t=P:problem=kreska taktowa podwójna	!	!
.	.	.	.	2AA/	-ter.	.	2A/	-ter.	.	2e\	-ter	.	2cc\	-ter:	.
=106	=106	=106	=106	=106	=106	=106	=106	=106	=106	=106	=106	=106	=106	=106	=106
!	!	!	!	!LO:N:vis=00	!	!	!	!	!LO:DY:t=F.	!	!	!	!	!	!LO:DY:t=F.
1.ryy	.	.	.	00.r	.	.	2A\	Fun-	f	1.rg	.	.	2cc\	Fun-	f
.	.	.	.	.	.	.	2cn\	-dens-	.	.	.	.	2ee\	-dens-	.
.	.	.	.	.	.	.	2A\	-q(ue)	.	.	.	.	2cc\	-q(ue)	.
=107	=107	=107	=107	=107	=107	=107	=107	=107	=107	=107	=107	=107	=107	=107	=107
1.ryy	.	.	.	.	.	.	(4e\	pro	.	2e\	fun-	.	1b\	pro	.
.	.	.	.	.	.	.	4d\	.	.	.	.	.	.	.	.
.	.	.	.	.	.	.	4e\)	.	.	2g#X\	-dens-	.	.	.	.
.	.	.	.	.	.	.	4f\	.	.	.	.	.	.	.	.
.	.	.	.	.	.	.	(4e\	Te	.	2e\	-q(ue)	.	(4cc\	Te	.
.	.	.	.	.	.	.	4d\)	.	.	.	.	.	4dd\)	.	.
=108	=108	=108	=108	=108	=108	=108	=108	=108	=108	=108	=108	=108	=108	=108	=108
1.ryy	.	.	.	.	.	.	2.cn\	San-	.	2a\	pro	.	(2.ee\	San-	.
.	.	.	.	.	.	.	.	.	.	4e\	.	.	.	.	.
.	.	.	.	.	.	.	4B\	.	.	4d\	.	.	4dd\	.	.
.	.	.	.	.	.	.	2A/	.	.	(4c\	Te	.	4cc\	.	.
.	.	.	.	.	.	.	.	.	.	4a\)	.	.	4b\)	.	.
=109	=109	=109	=109	=109	=109	=109	=109	=109	=109	=109	=109	=109	=109	=109	=109
1.ryy	.	.	.	.	.	.	2.d\	-gui-	.	2.f#X\	San-	.	2.a\	-gui-	.
.	.	.	.	.	.	.	4d\	.	.	4f#\	-gui-	.	4a\	.	.
.	.	.	.	.	.	.	2c\	-nem	.	2f#\	-nem	.	(4b\	-nem	.
.	.	.	.	.	.	.	.	.	.	.	.	.	4cc\)	.	.
!	!	!	!	!	!	!	!LO:LB:g=original	!	!	!	!	!	!	!	!
=110	=110	=110	=110	=110	=110	=110	=110	=110	=110	=110	=110	=110	=110	=110	=110
!	!	!	!	!LO:N:vis=00	!	!	!	!	!	!	!	!	!	!	!
1.ryy	.	.	.	00.r	.	.	2B\	ae-	.	2g\	fun-	.	2dd\	fun-	.
.	.	.	.	.	.	.	2G/	-ter-	.	2d\	-dens-	.	2b\	-dens-	.
.	.	.	.	.	.	.	2B\	-na	.	2g\	-q(ue)	.	2dd\	-q(ue)	.
=111	=111	=111	=111	=111	=111	=111	=111	=111	=111	=111	=111	=111	=111	=111	=111
1.ryy	.	.	.	.	.	.	(2.c\	do-	.	1e\	pro	.	2g\	pro	.
.	.	.	.	.	.	.	.	.	.	.	.	.	(4a\	.	.
.	.	.	.	.	.	.	4B\)	.	.	.	.	.	4b\)	.	.
.	.	.	.	.	.	.	2A/	-na	.	(4f#X\	Te	.	4cc\	Te	.
.	.	.	.	.	.	.	.	.	.	4e\)	.	.	4a\	.	.
=112	=112	=112	=112	=112	=112	=112	=112	=112	=112	=112	=112	=112	=112-	=112	=112
1.ryy	.	.	.	.	.	.	1B\	poſ-	.	1e\	san-	.	1f#X/	san-	.
.	.	.	.	.	.	.	2BB/	-si-	.	2d#X\	-gui-	.	2f#/	-gui-	.
=113	=113	=113	=113	=113	=113	=113	=113	=113	=113	=113	=113	=113	=113-	=113	=113
*	*	*	*	*	*	*	*	*	*	*custos:dn	*	*	*	*	*
!	!	!	!	!	!	!	!	!	!	!LO:TX:t=P:problem=kreska taktowa podwójna	!	!	!	!	!
!	!	!	!	!	!	!	!	!	!	!	!	!	!LO:TX:b:t=P:problem=♯ below	!	!
1.ryy	.	.	.	.	.	.	1.E/	-det.	.	1.e\,<	-nem	.	1.g#X\	-nem	.
!	!	!	!	!	!	!	!	!	!	!LO:LB:g=original	!	!	!LO:LB:g=original	!	!
=114	=114	=114	=114	=114	=114	=114	=114	=114	=114	=114	=114	=114	=114	=114	=114
!	!	!	!	!	!	!	!	!	!	!LO:TX:t=P:problem=♮ w poprzednim systemie	!	!	!	!	!
1.ryy	.	.	.	2G\	Fun-	.	2Gn/	Fun-	.	2dn\	Fun-	.	2b\	Fun-	.
.	.	.	.	2G\	-dens-	.	2G/	-dens-	.	2d\	-dens-	.	2b\	-dens-	.
.	.	.	.	2G#X\	-q(ue)	.	2B\	-q(ue)	.	2e\	-q(ue)	.	2b\	-q(ue)	.
=115	=115	=115	=115	=115	=115	=115	=115	=115	=115	=115	=115	=115	=115	=115	=115
1.ryy	.	.	.	2A\	pro	.	2A/	pro	.	1e\	pro	.	2cc\,<	pro	.
.	.	.	.	2A\,<	Te	.	2A/	Te	.	.	.	.	(2cc\	Te	.
.	.	.	.	2En\	fun-	.	2G#X/	fun-	.	2e\	Te	.	2b\)	.	.
=116	=116	=116	=116	=116	=116	=116	=116	=116	=116	=116	=116	=116	=116	=116	=116
1.ryy	.	.	.	1F\	-dens-	.	(2A\	-dens-	.	2fn\	fun-	.	(2cc\	San-	.
.	.	.	.	.	.	.	2B\)	.	.	2g\	-dens-	.	2dd\)	.	.
.	.	.	.	2E\	-q(ue)	.	2cn\	-q(ue)	.	2g\	-q(ue)	.	2ee\	.	.
=117	=117	=117	=117	=117	=117	=117	=117	=117	=117	=117	=117	=117	=117	=117	=117
1.ryy	.	.	.	2D/	san-	.	1c\	San-	.	2a\	San-	.	2ff\	.	.
.	.	.	.	2G\	.	.	.	.	.	2g\	.	.	2.dd\	.	.
.	.	.	.	2GG/	-gui-	.	2B\	-gui-	.	2g\	-gui-	.	.	.	.
*	*	*	*	*custos:C	*	*	*	*	*	*	*	*	*	*	*
.	.	.	.	.	.	.	.	.	.	.	.	.	4dd\	-gui-	.
!	!	!	!	!LO:LB:g=original	!	!	!	!	!	!	!	!	!	!	!
=118	=118	=118	=118	=118	=118	=118	=118	=118	=118	=118	=118	=118	=118	=118	=118
1.ryy	.	.	.	1.C/,<	-nem.	.	1.c\,<	-nem	.	1.g\,<	-nem	.	1.ee\,<	-nem	.
=119	=119	=119	=119	=119	=119	=119	=119	=119	=119	=119	=119	=119	=119	=119	=119
1.ryy	.	.	.	2c\	ae-	.	2c\	ae-	.	2gn\	ae-	.	2ee\	ae-	.
.	.	.	.	2c\	-ter-	.	2c\	-ter-	.	2a\	-ter-	.	2ee\	-ter-	.
.	.	.	.	2Bn\	-na	.	2d\	-na	.	2g#X\	-na	.	2dd\	-na	.
=120	=120	=120	=120	=120	=120	=120	=120	=120	=120	=120	=120	=120	=120	=120	=120
1.ryy	.	.	.	1A\	do-	.	2e\	do-	.	(2a\	do-	.	1ccn\	do-	.
.	.	.	.	.	.	.	2A/	.	.	2e\)	.	.	.	.	.
.	.	.	.	2E\	-na	.	2G#X/	-na	.	2e\	-na	.	2b\,<	-na	.
!	!	!	!	!	!	!	!LO:LB:g=original	!	!	!	!	!	!	!	!
=121	=121	=121	=121	=121	=121	=121	=121	=121	=121	=121	=121	=121	=121	=121	=121
*	*	*	*	*	*ij	*	*	*	*	*	*	*	*	*	*
1.ryy	.	.	.	2A\	ae-	.	2A\	ae-	.	2e\	ae-	.	2cc\	ae-	.
.	.	.	.	2A\	-ter-	.	2A\	-ter-	.	2e\	-ter-	.	2cc\	-ter-	.
.	.	.	.	2Gn\	-na	.	2Bn\	-na	.	2e\	-na	.	2b\	-na	.
=122	=122	=122	=122	=122	=122	=122	=122	=122	=122	=122	=122	=122	=122	=122	=122
1.ryy	.	.	.	(2.F\	do-	.	2A\	do-	.	(2.f\	do-	.	(2.a\	do-	.
.	.	.	.	.	.	.	4B\	.	.	.	.	.	.	.	.
.	.	.	.	4E\)	.	.	4c\	.	.	4g\)	.	.	4b\)	.	.
.	.	.	.	2D/	-na	.	(4d\	.	.	2a\	-na	.	2cc\	-na	.
*	*	*	*	*	*Xij	*	*	*	*	*	*	*	*	*	*
.	.	.	.	.	.	.	4A\)	.	.	.	.	.	.	.	.
=123	=123	=123	=123	=123	=123	=123	=123	=123	=123	=123	=123	=123	=123	=123	=123
1.ryy	.	.	.	[<1.E\	poſ-	.	1G#X/	.	.	1.e\	poſ-	.	(1b\	poſ-	.
.	.	.	.	.	.	.	2A/,<	-na	.	.	.	.	2cc\)	.	.
=124	=124	=124	=124	=124	=124	=124	=124	=124	=124	=124	=124	=124	=124	=124	=124
1.ryy	.	.	.	1E\]	.	.	1A\	poſ-	.	1e\	.	.	1b\	.	.
.	.	.	.	2E\	-si-	.	2G#X/	-si-	.	2e\	-si-	.	2b\	-si-	.
=125	=125	=125	=125	=125	=125	=125	=125	=125	=125	=125	=125	=125	=125	=125	=125
!	!	!	!	!LO:N:vis=1.	!	!	!	!	!	!	!	!	!	!	!
0.ryy	.	.	.	0.AA/;	-det.	.	0.A\;	-det.	.	0.e\;	-det.	.	0.cc#X\	-det.	.
!	!	!	!	!	!	!	!	!	!	!LO:LB:g=original	!	!	!LO:LB:g=original	!	!
=126||	=126||	=126||	=126||	=126||	=126||	=126||	=126||	=126||	=126||	=126||	=126||	=126||	=126||	=126||	=126||
*M2/2	*	*	*	*M2/2	*	*	*M2/2	*	*	*M2/2	*	*	*M2/2	*	*
*met(c|)	*	*	*	*met(c|)	*	*	*met(c|)	*	*	*met(c|)	*	*	*met(c|)	*	*
1ryy	.	.	.	00r	.	.	00r	.	.	00r	.	.	1g\	Ob	.
=127	=127	=127	=127	=127	=127	=127	=127	=127	=127	=127	=127	=127	=127	=127	=127
1ryy	.	.	.	.	.	.	.	.	.	.	.	.	2.cc\	hoc	.
.	.	.	.	.	.	.	.	.	.	.	.	.	(8dd\L	pre-	.
.	.	.	.	.	.	.	.	.	.	.	.	.	8cc\J)	.	.
=128	=128	=128	=128	=128	=128	=128	=128	=128	=128	=128	=128	=128	=128	=128	=128
1ryy	.	.	.	.	.	.	.	.	.	.	.	.	2b\	-ca-	.
.	.	.	.	.	.	.	.	.	.	.	.	.	2g\	-tu	.
=129	=129	=129	=129	=129	=129	=129	=129	=129	=129	=129	=129	=129	=129	=129	=129
1ryy	.	.	.	.	.	.	.	.	.	.	.	.	(2a\	sup-	.
.	.	.	.	.	.	.	.	.	.	.	.	.	2b\)	.	.
=130	=130	=130	=130	=130	=130	=130	=130	=130	=130	=130	=130	=130	=130	=130	=130
1ryy	.	.	.	00r	.	.	00r	.	.	1c\	Ob	.	2.cc\	.	.
.	.	.	.	.	.	.	.	.	.	.	.	.	4b\	.	.
=131	=131	=131	=131	=131	=131	=131	=131	=131	=131	=131	=131	=131	=131	=131	=131
1ryy	.	.	.	.	.	.	.	.	.	2.f\	hoc	.	2.a\	.	.
.	.	.	.	.	.	.	.	.	.	(8g\L	pre-	.	4a\	-pli-	.
.	.	.	.	.	.	.	.	.	.	8f\J)	.	.	.	.	.
=132	=132	=132	=132	=132	=132	=132	=132	=132	=132	=132	=132	=132	=132	=132	=132
1ryy	.	.	.	.	.	.	.	.	.	2e\	-ca-	.	2g/,<	-ci	.
.	.	.	.	.	.	.	.	.	.	2c/	-tu	.	2a\	ob	.
=133	=133	=133	=133	=133	=133	=133	=133	=133	=133	=133	=133	=133	=133	=133	=133
1ryy	.	.	.	.	.	.	.	.	.	2d\	pre-	.	2b\	hoc	.
.	.	.	.	.	.	.	.	.	.	2e\	-ca-	.	2cc\	pre-	.
=134	=134	=134	=134	=134	=134	=134	=134	=134	=134	=134	=134	=134	=134	=134	=134
1ryy	.	.	.	00r	.	.	1r	.	.	2.f\	-tu	.	(4a\	-ca-	.
.	.	.	.	.	.	.	.	.	.	.	.	.	4b\)	.	.
.	.	.	.	.	.	.	.	.	.	.	.	.	(4cc\	-tu	.
.	.	.	.	.	.	.	.	.	.	4e\	.	.	4a\)	.	.
=135	=135	=135	=135	=135	=135	=135	=135	=135	=135	=135	=135	=135	=135	=135	=135
!	!	!	!	!	!	!	!LO:TX:t=P:problem=♮ above	!	!	!	!	!	!	!	!
1ryy	.	.	.	.	.	.	1Gn/	Ob	.	2.d\	sup-	.	2b\	sup-	.
.	.	.	.	.	.	.	.	.	.	.	.	.	2b\	-pli-	.
.	.	.	.	.	.	.	.	.	.	4d\	-pli-	.	.	.	.
=136	=136	=136	=136	=136	=136	=136	=136	=136	=136	=136	=136	=136	=136	=136	=136
1ryy	.	.	.	.	.	.	2.c\	hoc	.	2c\,<	-ci	.	2cc\,<	-ci	.
.	.	.	.	.	.	.	.	.	.	2e\	ob	.	2g/	pre-	.
.	.	.	.	.	.	.	8d\L	pre-	.	.	.	.	.	.	.
.	.	.	.	.	.	.	8c\J	.	.	.	.	.	.	.	.
=137	=137	=137	=137	=137	=137	=137	=137	=137	=137	=137	=137	=137	=137	=137	=137
1ryy	.	.	.	.	.	.	2B\	-ca-	.	2d\	hoc	.	2g/	-ca-	.
.	.	.	.	.	.	.	2G/,<	-tu	.	2B/	pre-	.	2g/	-tu	.
=138	=138	=138	=138	=138	=138	=138	=138	=138	=138	=138	=138	=138	=138	=138	=138
1ryy	.	.	.	1r	.	.	(2A\	sup-	.	(2c/	-ca-	.	2f/	sup-	.
.	.	.	.	.	.	.	2B\)	.	.	2d/)	.	.	2d/,<	-pli-	.
=139	=139	=139	=139	=139	=139	=139	=139	=139	=139	=139	=139	=139	=139	=139	=139
1ryy	.	.	.	1C/	Ob	.	2.c\	.	.	2G/,<	-tu	.	1e/	-ci.	.
.	.	.	.	.	.	.	.	.	.	2g\	ob	.	.	.	.
.	.	.	.	.	.	.	4B\	.	.	.	.	.	.	.	.
=140	=140	=140	=140	=140	=140	=140	=140	=140	=140	=140	=140	=140	=140	=140	=140
1ryy	.	.	.	2.F\	hoc	.	2.A/	.	.	2.c/	hoc	.	00r	.	.
.	.	.	.	8G\L	pre-	.	4A/	-pli-	.	4d\	pre-	.	.	.	.
.	.	.	.	8F\J	.	.	.	.	.	.	.	.	.	.	.
=141	=141	=141	=141	=141	=141	=141	=141	=141	=141	=141	=141	=141	=141	=141	=141
1ryy	.	.	.	2E\	-ca-	.	2G/,<	-ci	.	2e\	-ca-	.	.	.	.
*	*	*	*	*	*	*	*custos:A	*	*	*	*	*	*	*	*
.	.	.	.	2C/	-tu	.	2c\	ob	.	2e\	.	.	.	.	.
!	!	!	!	!LO:LB:g=original	!	!	!LO:LB:g=original	!	!	!	!	!	!	!	!
=142	=142	=142	=142	=142	=142	=142	=142	=142	=142	=142	=142	=142	=142	=142	=142
1ryy	.	.	.	(2D\	sup-	.	2A/	hoc	.	2f\	-tu	.	.	.	.
.	.	.	.	2E\)	.	.	2G/	pre-	.	4e\	sup-	.	.	.	.
*	*	*	*	*	*	*	*	*	*	*custos:c	*	*	*	*	*
.	.	.	.	.	.	.	.	.	.	4d\	.	.	.	.	.
!	!	!	!	!	!	!	!	!	!	!LO:LB:g=original	!	!	!	!	!
=143	=143	=143	=143	=143	=143	=143	=143	=143	=143	=143	=143	=143	=143	=143	=143
1ryy	.	.	.	2.F\	.	.	2.A/	-ca-	.	2.c/	.	.	.	.	.
.	.	.	.	4E\	.	.	4G/,<	-tu	.	8d/L	.	.	.	.	.
.	.	.	.	.	.	.	.	.	.	8e/J	.	.	.	.	.
=144	=144	=144	=144	=144	=144	=144	=144	=144	=144	=144	=144	=144	=144	=144	=144
1ryy	.	.	.	2.D/	.	.	2A\	sup-	.	2f\	.	.	1r	.	.
.	.	.	.	.	.	.	2B\	-pli-	.	2f\	-pli-	.	.	.	.
*	*	*	*	*	*	*	*	*	*	*	*	*	*custos:cc	*	*
.	.	.	.	4D/	-pli-	.	.	.	.	.	.	.	.	.	.
!	!	!	!	!	!	!	!	!	!	!	!	!	!LO:LB:g=original	!	!
=145	=145	=145	=145	=145	=145	=145	=145	=145	=145	=145	=145	=145	=145	=145	=145
1ryy	.	.	.	2C/,<	-ci	.	1c\,<	-ci.	.	2e\,<	-ci	.	2r	.	.
.	.	.	.	2E\	Te	.	.	.	.	2g\	Te	.	(4cc\	Te	.
.	.	.	.	.	.	.	.	.	.	.	.	.	4b\)	.	.
=146	=146	=146	=146	=146	=146	=146	=146	=146	=146	=146	=146	=146	=146	=146	=146
1ryy	.	.	.	(4F\	poſ-	.	2r	.	.	2fn\	pos-	.	(4a\	pos-	.
.	.	.	.	4G\)	.	.	.	.	.	.	.	.	4b\)	.	.
.	.	.	.	(4A\	-ci-	.	2c\	Te	.	(4e\	-ci-	.	(4cc\	-ci-	.
.	.	.	.	4F\)	.	.	.	.	.	4f\)	.	.	4a\)	.	.
=147	=147	=147	=147	=147	=147	=147	=147	=147	=147	=147	=147	=147	=147	=147	=147
1ryy	.	.	.	2G\,<	-mus	.	2Bn\	poſ-	.	2d\,<	-mus	.	2b\,<	-mus	.
.	.	.	.	2G\	Pi-	.	2G/	-ci-	.	2d\	Te	.	2b\	Pi-	.
=148	=148	=148	=148	=148	=148	=148	=148	=148	=148	=148	=148	=148	=148	=148	=148
1ryy	.	.	.	2C/	-jſ-	.	2G/,<	-mus	.	2e\	pos-	.	2cc\	-iſ-	.
.	.	.	.	2D/	-si-	.	2d\	Pi-	.	2f#X\	-ci-	.	2a\	-si-	.
=149	=149	=149	=149	=149	=149	=149	=149	=149	=149	=149	=149	=149	=149	=149	=149
1ryy	.	.	.	2G\,<	-me;	.	2Bn\	-jſ-	.	2d\,<	-mus	.	1g\,<	-me	.
.	.	.	.	2C/	in	.	[<2c\	.	.	2e\	pi-	.	.	.	.
=150	=150	=150	=150	=150	=150	=150	=150	=150	=150	=150	=150	=150	=150	=150	=150
1ryy	.	.	.	2F\	hoc	.	2c\]	.	.	2fn\	-iſ-	.	2r	.	.
.	.	.	.	2G\	Tri-	.	2B\	-si-	.	2d\	-si-	.	2g\	in	.
=151	=151	=151	=151	=151	=151	=151	=151	=151	=151	=151	=151	=151	=151	=151	=151
1ryy	.	.	.	2.C/	-um-	.	2c\,<	-me	.	1e\,<	-me	.	2.cc\	hoc	.
.	.	.	.	.	.	.	2G/	in	.	.	.	.	.	.	.
.	.	.	.	4C/	-pho	.	.	.	.	.	.	.	8dd\L	tri-	.
.	.	.	.	.	.	.	.	.	.	.	.	.	8cc\J	.	.
=152	=152	=152	=152	=152	=152	=152	=152	=152	=152	=152	=152	=152	=152	=152	=152
1ryy	.	.	.	2GG/,<	mar-	.	2.G/	hoc	.	2r	.	.	2b\	-um-	.
.	.	.	.	1C	.	.	.	.	.	2e\	in	.	2g/,<	-pho	.
.	.	.	.	.	.	.	4F/	tri-	.	.	.	.	.	.	.
=153	=153	=153	=153	=153-	=153	=153	=153	=153	=153	=153	=153	=153	=153	=153	=153
1ryy	.	.	.	.	.	.	2E/	-um-	.	2c/	hoc	.	(2a\	Mar-	.
.	.	.	.	2BB/	.	.	2G/	-pho	.	2d/	Tri-	.	2b\)	.	.
=154	=154	=154	=154	=154	=154	=154	=154	=154	=154	=154	=154	=154	=154	=154	=154
1ryy	.	.	.	2.AA/	.	.	2G/	Mar-	.	2c/	-um-	.	2.cc\	.	.
.	.	.	.	.	.	.	2F#X/	-ty-	.	2A/	-pho	.	.	.	.
*	*	*	*	*custos:GG	*	*	*	*	*	*	*	*	*	*	*
.	.	.	.	4AA/	-ty-	.	.	.	.	.	.	.	4cc\	-ty-	.
!	!	!	!	!LO:LB:g=original	!	!	!	!	!	!	!	!	!	!	!
=155	=155	=155	=155	=155	=155	=155	=155	=155	=155	=155	=155	=155	=155	=155	=155
1ryy	.	.	.	2GG/,<	-ris	.	1G/,<	-ris	.	(2d\	Mar-	.	2b\,<	-ris	.
.	.	.	.	2G\	Tri-	.	.	.	.	2g\)	.	.	2b\	Tri-	.
!	!	!	!	!	!	!	!LO:LB:g=original	!	!	!LO:LB:g=original	!	!	!	!	!
=156	=156	=156	=156	=156	=156	=156	=156	=156	=156	=156	=156	=156	=156	=156	=156
1ryy	.	.	.	(4A\	-um-	.	2r	.	.	2.e\	.	.	(4cc\	-um-	.
.	.	.	.	4G\)	.	.	.	.	.	.	.	.	4b\)	.	.
.	.	.	.	(4A\	-pho	.	2c\	Mar-	.	.	.	.	(4cc\	-pho	.
.	.	.	.	4F\)	.	.	.	.	.	4f\	.	.	4a\)	.	.
=157	=157	=157	=157	=157	=157	=157	=157	=157	=157	=157	=157	=157	=157	=157	=157
1ryy	.	.	.	2G\	Mar-	.	(2B\	.	.	2d\	.	.	(2b\	Mar-	.
.	.	.	.	2C/	.	.	2e\)	.	.	1g	.	.	2cc\)	.	.
=158	=158	=158	=158	=158	=158	=158	=158	=158	=158	=158-	=158	=158	=158	=158	=158
1ryy	.	.	.	2.D\	.	.	2.d\	.	.	.	.	.	2.a\	.	.
.	.	.	.	.	.	.	.	.	.	2f#X\	-ty-	.	.	.	.
*	*	*	*	*	*	*	*	*	*	*	*	*	*custos:b	*	*
.	.	.	.	4D\	-ty-	.	4d\	-ty-	.	.	.	.	4a\	-ty-	.
!	!	!	!	!	!	!	!	!	!	!	!	!	!LO:LB:g=original	!	!
=159	=159	=159	=159	=159	=159	=159	=159	=159	=159	=159	=159	=159	=159	=159	=159
1ryy	.	.	.	2GG/	-ris.	.	2d\,<	-ris	.	2g\,<	-ris	.	2b\,<	-ris	.
.	.	.	.	2rBB	.	.	2G/	di-	.	2g\	di-	.	2b\	di-	.
=160	=160	=160	=160	=160	=160	=160	=160	=160	=160	=160	=160	=160	=160	=160	=160
1ryy	.	.	.	00r	.	.	2A/	-mit-	.	2f#X\	-mit-	.	2cc\	-mit-	.
.	.	.	.	.	.	.	2B/	-te	.	2g\	-te	.	2dd\	-te	.
=161	=161	=161	=161	=161	=161	=161	=161	=161	=161	=161	=161	=161	=161	=161	=161
1ryy	.	.	.	.	.	.	(2c\	no-	.	2g\	no-	.	2ee\	no-	.
.	.	.	.	.	.	.	2A/)	.	.	2f#X\	-xam	.	2cc\,<	-xam	.
=162	=162	=162	=162	=162	=162	=162	=162	=162	=162	=162	=162	=162	=162	=162	=162
1ryy	.	.	.	.	.	.	2G/,<	-xam	.	1.g\	Ser-	.	(2dd\	Ser-	.
.	.	.	.	.	.	.	2c\	Ser-	.	.	.	.	4cc\	.	.
.	.	.	.	.	.	.	.	.	.	.	.	.	4b\)	.	.
=163	=163	=163	=163	=163	=163	=163	=163	=163	=163	=163-	=163	=163	=163	=163	=163
1ryy	.	.	.	.	.	.	2.d\	.	.	.	.	.	2.a\	.	.
.	.	.	.	.	.	.	.	.	.	2f#X\	-vu-	.	.	.	.
.	.	.	.	.	.	.	4D/	-vu-	.	.	.	.	4a\	-vu-	.
=164	=164	=164	=164	=164	=164	=164	=164	=164	=164	=164	=164	=164	=164	=164	=164
1ryy	.	.	.	2rBB	.	.	2G/,<	-lis	.	2g\,<	-lis	.	2b\,<	-lis	.
.	.	.	.	2C/	di-	.	2e\	di-	.	2g\	di-	.	2cc\	di-	.
=165	=165	=165	=165	=165	=165	=165	=165	=165	=165	=165	=165	=165	=165	=165	=165
1ryy	.	.	.	2D\	-mit-	.	2d\	-mit-	.	2fn\	-mit-	.	2b\	-mit-	.
.	.	.	.	2E\,<	-te	.	2c\,<	-te	.	2g\	-te	.	2ee\	-te	.
=166	=166	=166	=166	=166	=166	=166	=166	=166	=166	=166	=166	=166	=166	=166	=166
1ryy	.	.	.	2F\	no-	.	2c\	no-	.	2a\	no-	.	2cc\	no-	.
.	.	.	.	2D/,<	-xam	.	2Bn\	-xam	.	2fn\	.	.	2dd\	.	.
=167	=167	=167	=167	=167	=167	=167	=167	=167	=167	=167	=167	=167	=167	=167	=167
1ryy	.	.	.	(2C/	Ser-	.	2c\	Ser-	.	2g\	-xam	.	2ee\	-xam	.
.	.	.	.	2F\)	.	.	2A/	.	.	4f\	Ser-	.	1cc	Ser-	.
.	.	.	.	.	.	.	.	.	.	4e\	.	.	.	.	.
=168	=168	=168	=168	=168	=168	=168	=168	=168	=168	=168	=168	=168	=168-	=168	=168
1ryy	.	.	.	2.G\	.	.	2.G/	.	.	2.d\	.	.	.	.	.
.	.	.	.	.	.	.	.	.	.	.	.	.	2b\	-vu-	.
.	.	.	.	4GG/	-vu-	.	4G/	-vu-	.	4d\	-vu-	.	.	.	.
=169	=169	=169	=169	=169	=169	=169	=169	=169	=169	=169	=169	=169	=169	=169	=169
1ryy	.	.	.	2C/,<	-lis	.	2G/,<	-lis,	.	2e\,<	-lis	.	2cc\,<	-lis.	.
*	*	*	*	*	*	*	*custos:d	*	*	*custos:f	*	*	*	*	*
.	.	.	.	2c\	di-	.	2c\	di-	.	2e\	di-	.	2rb	.	.
!	!	!	!	!	!	!	!LO:LB:g=original	!	!	!LO:LB:g=original	!	!	!	!	!
=170	=170	=170	=170	=170	=170	=170	=170	=170	=170	=170	=170	=170	=170	=170	=170
!	!	!	!	!	!	!	!	!	!	!	!	!	!	!	!LO:DY:b
1ryy	.	.	.	2Bn\	-mit	.	(2d\	-mit-	.	2f\	-mit-	.	1gg\	di-	f
.	.	.	.	2c\	.	.	2e\)	.	.	1e	.	.	.	.	.
!	!	!	!	!LO:LB:g=original	!	!	!	!	!	!	!	!	!	!	!
=171	=171	=171	=171	=171	=171	=171	=171	=171	=171	=171-	=171	=171	=171	=171	=171
1ryy	.	.	.	2A\	te	.	(2c\	-te	.	.	.	.	1ffn\	-mit-	.
.	.	.	.	2Bn\	.	.	2d\)	.	.	[2d/	-te	.	.	.	.
!	!	!	!	!	!	!	!	!	!	!	!	!	!LO:LB:g=original	!	!
=172	=172	=172	=172	=172	=172	=172	=172	=172	=172	=172	=172	=172	=172	=172	=172
1ryy	.	.	.	(2G\	no-	.	2B\	no-	.	2d/]	.	.	1ee\,<	-te	.
.	.	.	.	2A\)	.	.	1c\	-xam	.	2c/	.	.	.	.	.
=173	=173	=173	=173	=173	=173	=173	=173-	=173	=173	=173	=173	=173	=173	=173	=173
1ryy	.	.	.	(2F\	-xam	.	.	.	.	2a\	no-	.	1dd\	no-	.
.	.	.	.	2G\)	.	.	1Bn	.	.	1g	.	.	.	.	.
=174	=174	=174	=174	=174	=174	=174	=174-	=174	=174	=174-	=174	=174	=174	=174	=174
1ryy	.	.	.	(2E\	Ser-	.	.	.	.	.	.	.	2cc\,<	-xam	.
.	.	.	.	2F\)	.	.	[<2A\	Ser-	.	2fn\	-xam	.	1cc	Ser-	.
=175	=175	=175	=175	=175	=175	=175	=175	=175	=175	=175	=175	=175	=175-	=175	=175
1ryy	.	.	.	2.D/	.	.	2A\]	.	.	2.f\	Ser-	.	.	.	.
.	.	.	.	.	.	.	2Bn\	-vu-	.	.	.	.	2b\	-vu-	.
.	.	.	.	4D/	-vu-	.	.	.	.	4f\	-vu-	.	.	.	.
=176	=176	=176	=176	=176	=176	=176	=176	=176	=176	=176	=176	=176	=176	=176	=176
1ryy	.	.	.	2C/,<	-lis	.	2G/,<	-lis	.	2e\,<	-lis	.	2cc\,<	-lis	.
.	.	.	.	2E\	di-	.	2G/	di-	.	2g\	di-	.	2cc\	di-	.
=177	=177	=177	=177	=177	=177	=177	=177	=177	=177	=177	=177	=177	=177	=177	=177
1ryy	.	.	.	4F\	-mit-	.	4A/	-mit-	.	4f\	-mit-	.	4cc\	-mit-	.
.	.	.	.	4F\,<	-te	.	4A/,<	-te	.	4f\,<	-te	.	4cc\,<	-te	.
.	.	.	.	4C/	no-	.	4G/	no-	.	4e\	no-	.	4cc\	no-	.
.	.	.	.	4C/	-xam	.	4G/	-xam	.	4e\	-xam	.	4cc\	-xam	.
=178	=178	=178	=178	=178	=178	=178	=178	=178	=178	=178	=178	=178	=178	=178	=178
1ryy	.	.	.	[<1F\	Ser-	.	1.A	Ser-	.	1.f\	Ser-	.	[<1cc\	Ser-	.
=179	=179	=179	=179	=179	=179	=179	=179-	=179	=179	=179-	=179	=179	=179	=179	=179
!	!	!	!	!LO:N:xstem:cue:vis=4	!	!	!LO:N:xstem:cue:vis=4	!	!	!LO:N:xstem:cue:vis=4	!	!	!LO:N:xstem:cue:vis=4	!	!
1ryy	.	.	.	2F\]	.	.	.	.	.	.	.	.	2cc\]	.	.
.	.	.	.	2F\	-vu-	.	2A/	-vu-	.	2f\	-vu-	.	2cc\	-vu-	.
=180	=180	=180	=180	=180	=180	=180	=180	=180	=180	=180	=180	=180	=180	=180	=180
0.ryy	.	.	.	0.C/;	-lis.	.	0.G/	-lis.	.	0.e\;	-lis.	.	0.cc\;	-lis.	.
==	==	==	==	==	==	==	==	==	==	==	==	==	==	==	==
*-	*-	*-	*-	*-	*-	*-	*-	*-	*-	*-	*-	*-	*-	*-	*-
!!!system-decoration: [s1,s2,s3,s4]s5
!!!RDF**kern: < = below
!!!RDF**dynam: f = "For."
!!!AIN: 1 alto 2 empty 1 tenor 1 vox
!!!ENC: Marta Lawrence
!!!END: 2021-02-21
!!!ENC: Andrzej Kubiczek
!!!END: 2021-02-06
